assets/base/img/common/icon_line-circle.svg

<svg width="54" height="54" viewBox="0 0 54 54" fill="none" xmlns="http://www.w3.org/2000/svg">
<rect width="54" height="54" rx="27" fill="#00B900"/>
<path fill-rule="evenodd" clip-rule="evenodd" d="M34.3667 39.9236H19.6333C16.5222 39.9236 14 37.4088 14 34.3068V19.6168C14 16.5148 16.5222 14 19.6333 14H34.3667C37.4778 14 40 16.5148 40 19.6168V34.3068C40 37.4088 37.4778 39.9236 34.3667 39.9236" fill="#00B900"/>
<path fill-rule="evenodd" clip-rule="evenodd" d="M36.423 25.8217C36.423 21.5981 32.1763 18.1621 26.9566 18.1621C21.7373 18.1621 17.4902 21.5981 17.4902 25.8217C17.4902 29.6078 20.8581 32.7789 25.4072 33.3784C25.7153 33.4447 26.135 33.5811 26.241 33.844C26.3365 34.0825 26.3036 34.4564 26.2717 34.6973C26.2717 34.6973 26.1608 35.3633 26.1365 35.5052C26.0954 35.744 25.9463 36.4387 26.9566 36.0142C27.9669 35.5897 32.4082 32.8135 34.3944 30.5342H34.3939C35.7659 29.0341 36.423 27.5119 36.423 25.8217" fill="white"/>
<path fill-rule="evenodd" clip-rule="evenodd" d="M25.036 23.781H24.3719C24.2703 23.781 24.1875 23.8633 24.1875 23.9646V28.0772C24.1875 28.1785 24.2703 28.2606 24.3719 28.2606H25.036C25.1378 28.2606 25.2204 28.1785 25.2204 28.0772V23.9646C25.2204 23.8633 25.1378 23.781 25.036 23.781" fill="#00B900"/>
<path fill-rule="evenodd" clip-rule="evenodd" d="M29.6058 23.781H28.9419C28.8399 23.781 28.7573 23.8633 28.7573 23.9646V26.4079L26.8671 23.8627C26.8628 23.8562 26.8578 23.8499 26.8528 23.8441C26.8524 23.8437 26.8519 23.8432 26.8517 23.8428C26.848 23.8389 26.8441 23.835 26.8405 23.8316C26.8394 23.8305 26.8383 23.8294 26.8372 23.8283C26.834 23.8257 26.8307 23.8227 26.8272 23.8203C26.8257 23.8188 26.8242 23.8177 26.8225 23.8164C26.8194 23.8143 26.8162 23.8121 26.8129 23.81C26.8112 23.8087 26.8093 23.8078 26.8073 23.8067C26.8041 23.8048 26.8008 23.8028 26.7976 23.8011C26.7956 23.8002 26.7937 23.7992 26.7917 23.7983C26.7882 23.7968 26.7848 23.795 26.7811 23.794C26.7789 23.7931 26.7772 23.7925 26.775 23.7918C26.7716 23.7903 26.7679 23.7892 26.7642 23.7881C26.762 23.7875 26.7601 23.7871 26.7577 23.7864C26.7542 23.7855 26.7508 23.7849 26.7471 23.7842C26.7445 23.7838 26.7419 23.7834 26.7393 23.7832C26.7362 23.7825 26.733 23.7823 26.7297 23.7819C26.7265 23.7817 26.7235 23.7814 26.7202 23.7812C26.7178 23.7812 26.7159 23.781 26.7137 23.781H26.0496C25.948 23.781 25.8652 23.8633 25.8652 23.9646V28.0772C25.8652 28.1785 25.948 28.2606 26.0496 28.2606H26.7137C26.8155 28.2606 26.8981 28.1785 26.8981 28.0772V25.6348L28.7907 28.183C28.8037 28.2014 28.8199 28.2165 28.8375 28.2284C28.8381 28.2288 28.8388 28.2293 28.8394 28.2299C28.8431 28.2323 28.847 28.2347 28.8509 28.2368C28.8526 28.2377 28.8542 28.2386 28.8561 28.2396C28.8589 28.2412 28.8617 28.2427 28.865 28.244C28.8678 28.2453 28.8706 28.2463 28.8739 28.2476C28.8758 28.2483 28.8773 28.2492 28.8793 28.2498C28.8836 28.2513 28.8877 28.2526 28.8919 28.2539C28.8927 28.2539 28.8936 28.2543 28.8947 28.2543C28.9096 28.2584 28.9254 28.2606 28.9419 28.2606H29.6058C29.7076 28.2606 29.7902 28.1785 29.7902 28.0772V23.9646C29.7902 23.8633 29.7076 23.781 29.6058 23.781" fill="#00B900"/>
<path fill-rule="evenodd" clip-rule="evenodd" d="M23.4327 27.2308H21.6286V23.9646C21.6286 23.8631 21.546 23.781 21.4442 23.781H20.7801C20.6785 23.781 20.5957 23.8631 20.5957 23.9646V28.0768V28.0772C20.5957 28.1265 20.6156 28.1712 20.6475 28.204C20.6481 28.2049 20.6488 28.206 20.6499 28.207C20.6507 28.2077 20.6518 28.2083 20.6525 28.2094C20.6858 28.2412 20.7305 28.2608 20.7799 28.2608H20.7801H23.4327C23.5346 28.2608 23.6169 28.1783 23.6169 28.0768V27.4149C23.6169 27.3133 23.5346 27.2308 23.4327 27.2308" fill="#00B900"/>
<path fill-rule="evenodd" clip-rule="evenodd" d="M33.2726 24.8108C33.3744 24.8108 33.4567 24.7285 33.4567 24.627V23.9648C33.4567 23.8633 33.3744 23.781 33.2726 23.781H30.6199H30.6197C30.5699 23.781 30.525 23.8009 30.4919 23.8329C30.4912 23.8337 30.4904 23.8341 30.4897 23.8348C30.4886 23.8359 30.4875 23.837 30.4867 23.838C30.4553 23.8709 30.4355 23.9154 30.4355 23.9646V23.9648V28.0767V28.0772C30.4355 28.1264 30.4555 28.1712 30.4873 28.204C30.488 28.2051 30.4888 28.2062 30.4897 28.207C30.4906 28.2077 30.4917 28.2087 30.4923 28.2092C30.5255 28.2409 30.5703 28.2608 30.6197 28.2608H30.6199H33.2726C33.3744 28.2608 33.4567 28.1783 33.4567 28.0767V27.4148C33.4567 27.3133 33.3744 27.2308 33.2726 27.2308H31.4684V26.5356H33.2726C33.3744 26.5356 33.4567 26.4535 33.4567 26.3518V25.6898C33.4567 25.5883 33.3744 25.5058 33.2726 25.5058H31.4684V24.8108H33.2726Z" fill="#00B900"/>
</svg>

<svg width="54" height="54" fill="none" xmlns="http://www.w3.org/2000/svg"><rect width="54" height="54" rx="27" fill="#00B900"/><path fill-rule="evenodd" clip-rule="evenodd" d="M34.367 39.924H19.633c-3.11 0-5.633-2.515-5.633-5.617v-14.69C14 16.515 16.522 14 19.633 14h14.734C37.477 14 40 16.515 40 19.617v14.69c0 3.102-2.522 5.617-5.633 5.617" fill="#00B900"/><path fill-rule="evenodd" clip-rule="evenodd" d="M36.423 25.822c0-4.224-4.247-7.66-9.466-7.66-5.22 0-9.467 3.436-9.467 7.66 0 3.786 3.368 6.957 7.917 7.556.308.067.728.203.834.466.096.239.063.612.03.853l-.134.808c-.042.239-.19.934.82.51 1.01-.425 5.451-3.202 7.437-5.48 1.372-1.5 2.029-3.023 2.029-4.713" fill="#fff"/><path fill-rule="evenodd" clip-rule="evenodd" d="M25.036 23.781h-.664a.184.184 0 00-.184.184v4.112c0 .101.082.184.184.184h.664a.184.184 0 00.184-.184v-4.112a.184.184 0 00-.184-.184m4.57 0h-.664a.184.184 0 00-.185.184v2.443l-1.89-2.545a.187.187 0 00-.014-.019l-.001-.001a.296.296 0 00-.012-.011c0-.002-.002-.003-.003-.004l-.01-.008-.005-.004-.01-.006-.005-.003-.01-.006-.005-.003-.01-.004a.075.075 0 00-.007-.002l-.01-.004c-.003 0-.005 0-.007-.002l-.01-.002h-.009c-.003-.002-.006-.002-.01-.002h-.009l-.006-.001h-.664a.184.184 0 00-.185.184v4.112c0 .101.083.184.185.184h.664a.184.184 0 00.184-.184v-2.442l1.893 2.548a.182.182 0 00.06.054c.002 0 .003.002.005.003a.067.067 0 00.009.004l.009.004.005.002a.368.368 0 00.013.004h.003c.015.004.03.007.047.007h.664a.184.184 0 00.184-.184v-4.112a.184.184 0 00-.184-.184m-6.173 3.449h-1.804v-3.265a.184.184 0 00-.185-.184h-.664a.184.184 0 00-.184.184v4.112a.18.18 0 00.054.13l.003.002a.184.184 0 00.127.052h2.653a.184.184 0 00.184-.184v-.662a.184.184 0 00-.184-.184m9.84-2.421a.184.184 0 00.184-.183v-.662a.184.184 0 00-.184-.184H30.62c-.05 0-.095.02-.128.052l-.002.002-.003.003a.183.183 0 00-.051.127v4.112a.182.182 0 00.054.13l.002.002a.184.184 0 00.128.052h2.653a.184.184 0 00.184-.184v-.662a.184.184 0 00-.184-.184h-1.805v-.695h1.805a.184.184 0 00.184-.184v-.662a.184.184 0 00-.184-.184h-1.805v-.695h1.805z" fill="#00B900"/></svg>
